src/images/icons/mood-happy-solid.svg

<svg width="49" height="49" viewBox="0 0 49 49" fill="none" xmlns="http://www.w3.org/2000/svg">
<rect width="48" height="48" transform="translate(0.666687 0.888916)" fill="#3DA9F4"/>
<path fill-rule="evenodd" clip-rule="evenodd" d="M44.6667 24.8889C44.6667 35.9345 35.7123 44.8889 24.6667 44.8889C13.621 44.8889 4.66669 35.9345 4.66669 24.8889C4.66669 13.8432 13.621 4.88892 24.6667 4.88892C35.7123 4.88892 44.6667 13.8432 44.6667 24.8889ZM21.6667 20.8889C21.6667 22.5457 20.3235 23.8889 18.6667 23.8889C17.0098 23.8889 15.6667 22.5457 15.6667 20.8889C15.6667 19.2321 17.0098 17.8889 18.6667 17.8889C20.3235 17.8889 21.6667 19.2321 21.6667 20.8889ZM30.6667 23.8889C32.3235 23.8889 33.6667 22.5457 33.6667 20.8889C33.6667 19.2321 32.3235 17.8889 30.6667 17.8889C29.0099 17.8889 27.6667 19.2321 27.6667 20.8889C27.6667 22.5457 29.0099 23.8889 30.6667 23.8889ZM17.1822 29.8889C18.1001 29.2745 19.3293 29.5503 20.1762 30.2593C21.3927 31.2779 22.9585 31.8889 24.6667 31.8889C26.3749 31.8889 27.9407 31.2779 29.1571 30.2593C30.0041 29.5503 31.2333 29.2745 32.1511 29.8889C33.0691 30.5033 33.3261 31.7617 32.5563 32.5537C30.5593 34.6087 27.7627 35.8889 24.6667 35.8889C21.5707 35.8889 18.7741 34.6087 16.777 32.5537C16.0072 31.7617 16.2643 30.5033 17.1822 29.8889Z" fill="#FBED1F"/>
</svg>

<svg xmlns="http://www.w3.org/2000/svg" width="49" height="49" fill="none"><path fill="#3DA9F4" d="M.667.889h48v48h-48z"/><path fill="#FBED1F" fill-rule="evenodd" d="M44.667 24.889c0 11.046-8.955 20-20 20-11.046 0-20-8.955-20-20 0-11.046 8.954-20 20-20 11.045 0 20 8.954 20 20Zm-23-4a3 3 0 1 1-6 0 3 3 0 0 1 6 0Zm9 3a3 3 0 1 0 0-6 3 3 0 0 0 0 6Zm-13.485 6c.918-.614 2.147-.339 2.994.37a6.97 6.97 0 0 0 4.49 1.63 6.969 6.969 0 0 0 4.491-1.63c.847-.709 2.076-.985 2.994-.37.918.614 1.175 1.873.405 2.665a10.97 10.97 0 0 1-7.89 3.335 10.97 10.97 0 0 1-7.889-3.335c-.77-.792-.513-2.05.405-2.665Z" clip-rule="evenodd"/></svg>
